images/usecases/scada/energy-1.svg

<svg width="261" height="322" fill="none" xmlns="http://www.w3.org/2000/svg"><path d="M64.25 214c0-51.501 41.749-93.25 93.25-93.25s93.25 41.749 93.25 93.25-41.749 93.25-93.25 93.25S64.25 265.501 64.25 214Z" stroke="#91A3BE" stroke-width="1.5"/><path fill-rule="evenodd" clip-rule="evenodd" d="M144.718 169.731a2.155 2.155 0 0 1 2.735 1.343c1.473 4.316.65 7.582-.031 10.026-.716 2.565-.927 3.463-.204 4.572a2.154 2.154 0 0 1-3.608 2.354c-1.84-2.821-1.049-5.59-.459-7.657l.121-.426c.62-2.224 1.143-4.433.103-7.477a2.155 2.155 0 0 1 1.343-2.735ZM152.874 169.731a2.155 2.155 0 0 1 2.735 1.343c1.474 4.316.651 7.538-.034 9.947-.714 2.509-.922 3.366-.2 4.472a2.154 2.154 0 1 1-3.609 2.353c-1.842-2.824-1.048-5.553-.456-7.586l.121-.418c.617-2.169 1.14-4.332.101-7.376a2.154 2.154 0 0 1 1.342-2.735Z" fill="#305680"/><path fill-rule="evenodd" clip-rule="evenodd" d="M172.444 184.515c0-1.189.965-2.154 2.155-2.154h15.617c1.19 0 2.154.965 2.154 2.154v25.491a2.154 2.154 0 1 1-4.308 0V186.67h-11.309v34.466h19.207c1.19 0 2.155.964 2.155 2.154v30.786h3.231a2.154 2.154 0 0 1 0 4.309h-87.692a2.154 2.154 0 0 1 0-4.309h2.573c2.888-5.457 6.892-14.324 10.149-24.417 3.497-10.838 6.077-22.921 5.591-33.647a2.153 2.153 0 0 1 2.152-2.252h28.721c1.163 0 2.116.923 2.153 2.084.195 5.979 1.098 15.38 3.147 25.292h4.304v-36.621Zm-3.345 40.929c2.587 10.83 6.534 21.512 12.257 28.632h12.45v-19.477h-15.617a2.154 2.154 0 1 1 0-4.308h15.617v-4.847h-24.707Zm6.906 28.632c-5.688-8.355-9.38-19.667-11.713-30.325-2.128-9.72-3.172-19.117-3.515-25.682h-24.446c.098 10.849-2.519 22.574-5.855 32.913-2.965 9.187-6.535 17.396-9.402 23.094h54.931Z" fill="#305680"/><path fill-rule="evenodd" clip-rule="evenodd" d="M150.247 203.089a2.154 2.154 0 0 1 1.555 2.069v11.848h8.078a2.154 2.154 0 0 1 1.798 3.34l-14.271 21.632a2.154 2.154 0 0 1-3.952-1.187v-10.358l-8.385-.143a2.157 2.157 0 0 1-1.859-1.131 2.157 2.157 0 0 1 .076-2.175l14.54-22.978a2.155 2.155 0 0 1 2.42-.917Zm-11.269 22.958 6.668.114a2.155 2.155 0 0 1 2.117 2.154v5.3l8.115-12.301h-6.23a2.154 2.154 0 0 1-2.154-2.154v-6.569l-8.516 13.456Z" fill="#305680"/><path d="M192.371 216.648a2.154 2.154 0 1 1-4.308 0 2.154 2.154 0 0 1 4.308 0Z" fill="#305680"/><path d="M0 212h43M150.75 24v80" stroke="#91A3BE" stroke-width="1.5"/><path d="M42 212.741a109.495 109.495 0 0 1 67.374-101.313A109.506 109.506 0 0 1 151.259 103l.003 1.586a107.929 107.929 0 0 0-76.236 31.776 107.9 107.9 0 0 0-31.44 76.376l-1.586.003Z" fill="#91A3BE"/><circle cx="151" cy="12" r="11.25" fill="#F4F8FE" stroke="#91A3BE" stroke-width="1.5"/></svg>

<svg width="261" height="322" viewBox="0 0 261 322" fill="none" xmlns="http://www.w3.org/2000/svg">
<path d="M64.25 214C64.25 162.499 105.999 120.75 157.5 120.75C209.001 120.75 250.75 162.499 250.75 214C250.75 265.501 209.001 307.25 157.5 307.25C105.999 307.25 64.25 265.501 64.25 214Z" stroke="#91A3BE" stroke-width="1.5"/>
<path fill-rule="evenodd" clip-rule="evenodd" d="M144.718 169.731C145.844 169.347 147.068 169.948 147.453 171.074C148.926 175.39 148.103 178.656 147.422 181.1C146.706 183.665 146.495 184.563 147.218 185.672C147.868 186.669 147.587 188.003 146.591 188.653C145.594 189.303 144.26 189.022 143.61 188.026C141.77 185.205 142.561 182.436 143.151 180.369C143.192 180.224 143.233 180.081 143.272 179.943C143.892 177.719 144.415 175.51 143.375 172.466C142.991 171.34 143.592 170.116 144.718 169.731Z" fill="#305680"/>
<path fill-rule="evenodd" clip-rule="evenodd" d="M152.874 169.731C154 169.347 155.224 169.948 155.609 171.074C157.083 175.39 156.26 178.612 155.575 181.021C154.861 183.53 154.653 184.387 155.375 185.493C156.025 186.489 155.744 187.824 154.747 188.474C153.751 189.124 152.416 188.843 151.766 187.846C149.924 185.022 150.718 182.293 151.31 180.26C151.352 180.118 151.392 179.978 151.431 179.842C152.048 177.673 152.571 175.51 151.532 172.466C151.147 171.34 151.748 170.116 152.874 169.731Z" fill="#305680"/>
<path fill-rule="evenodd" clip-rule="evenodd" d="M172.444 184.515C172.444 183.326 173.409 182.361 174.599 182.361H190.216C191.406 182.361 192.37 183.326 192.37 184.515V210.006C192.37 211.196 191.406 212.16 190.216 212.16C189.026 212.16 188.062 211.196 188.062 210.006V186.67H176.753V221.136H195.96C197.15 221.136 198.115 222.1 198.115 223.29V254.076H201.346C202.536 254.076 203.5 255.041 203.5 256.231C203.5 257.42 202.536 258.385 201.346 258.385H113.654C112.464 258.385 111.5 257.42 111.5 256.231C111.5 255.041 112.464 254.076 113.654 254.076H116.227C119.115 248.619 123.119 239.752 126.376 229.659C129.873 218.821 132.453 206.738 131.967 196.012C131.94 195.424 132.155 194.851 132.561 194.426C132.968 194.001 133.53 193.76 134.119 193.76H162.84C164.003 193.76 164.956 194.683 164.993 195.844C165.188 201.823 166.091 211.224 168.14 221.136H172.444V184.515ZM169.099 225.444C171.686 236.274 175.633 246.956 181.356 254.076H193.806V234.599H178.189C176.999 234.599 176.035 233.635 176.035 232.445C176.035 231.256 176.999 230.291 178.189 230.291H193.806V225.444H169.099ZM176.005 254.076C170.317 245.721 166.625 234.409 164.292 223.751C162.164 214.031 161.12 204.634 160.777 198.069H136.331C136.429 208.918 133.812 220.643 130.476 230.982C127.511 240.169 123.941 248.378 121.074 254.076H176.005Z" fill="#305680"/>
<path fill-rule="evenodd" clip-rule="evenodd" d="M150.247 203.089C151.168 203.356 151.802 204.199 151.802 205.158V217.006H159.88C160.673 217.006 161.401 217.441 161.777 218.139C162.152 218.837 162.115 219.685 161.678 220.346L147.407 241.978C146.883 242.772 145.9 243.128 144.989 242.855C144.078 242.581 143.455 241.743 143.455 240.791V230.433L135.07 230.29C134.292 230.276 133.581 229.844 133.211 229.159C132.842 228.473 132.871 227.642 133.287 226.984L147.827 204.006C148.34 203.196 149.327 202.822 150.247 203.089ZM138.978 226.047L145.646 226.161C146.821 226.182 147.763 227.14 147.763 228.315V233.615L155.878 221.314H149.648C148.458 221.314 147.494 220.35 147.494 219.16V212.591L138.978 226.047Z" fill="#305680"/>
<path d="M192.371 216.648C192.371 217.838 191.406 218.802 190.217 218.802C189.027 218.802 188.062 217.838 188.062 216.648C188.062 215.459 189.027 214.494 190.217 214.494C191.406 214.494 192.371 215.459 192.371 216.648Z" fill="#305680"/>
<path d="M0 212H43" stroke="#91A3BE" stroke-width="1.5"/>
<line x1="150.75" y1="24" x2="150.75" y2="104" stroke="#91A3BE" stroke-width="1.5"/>
<path d="M42.0003 212.741C41.9686 198.361 44.7695 184.116 50.2432 170.819C55.7168 157.522 63.7559 145.433 73.9015 135.242C84.0471 125.052 96.1005 116.96 109.374 111.428C122.647 105.896 136.879 103.032 151.259 103L151.262 104.586C137.091 104.618 123.065 107.44 109.984 112.892C96.903 118.344 85.0242 126.319 75.0256 136.362C65.027 146.404 57.1043 158.318 51.71 171.423C46.3157 184.527 43.5553 198.566 43.5865 212.738L42.0003 212.741Z" fill="#91A3BE"/>
<circle cx="151" cy="12" r="11.25" fill="#F4F8FE" stroke="#91A3BE" stroke-width="1.5"/>
</svg>
